styles/z-bolt/images/delete.svg

<svg id="Capa_1" enable-background="new 0 0 512 512" height="512" viewBox="0 0 512 512" width="512" xmlns="http://www.w3.org/2000/svg">
    <g style="fill:#ffffff;">
        <path d="m256 441.142c8.284 0 15-6.716 15-15v-201.409c0-8.284-6.716-15-15-15s-15 6.716-15 15v201.409c0 8.284 6.716 15 15 15z"/>
        <path d="m173.412 427.552c.78 8.263 8.115 14.303 16.344 13.523 8.248-.779 14.302-8.096 13.523-16.344l-19.018-201.409c-.779-8.247-8.083-14.303-16.344-13.523-8.248.779-14.302 8.096-13.523 16.344z"/>
        <path d="m322.244 441.076c8.238.779 15.564-5.269 16.344-13.523l19.018-201.409c.779-8.248-5.276-15.565-13.523-16.344-8.26-.784-15.565 5.276-16.344 13.523l-19.018 201.409c-.779 8.247 5.276 15.565 13.523 16.344z"/>
        <path d="m57.646 168.875h8.967l43.448 330.083c.982 7.463 7.344 13.042 14.872 13.042h262.135c7.528 0 13.889-5.579 14.872-13.042l43.448-330.083h8.967c8.284 0 15-6.716 15-15v-65.629c0-8.284-6.716-15-15-15h-128.357v-5.911c0-37.128-30.207-67.335-67.335-67.335h-5.325c-37.128 0-67.335 30.207-67.335 67.335v5.911h-128.357c-8.284 0-15 6.716-15 15v65.629c0 8.284 6.715 15 15 15zm316.267 313.125h-235.826l-41.215-313.125h318.257zm-157.911-414.665c0-20.586 16.749-37.335 37.335-37.335h5.325c20.586 0 37.335 16.749 37.335 37.335v5.911h-79.995zm-143.356 35.911h366.709v35.629c-3.207 0-362.709 0-366.709 0z"/>
    </g>
</svg>

<?xml version="1.0" encoding="UTF-8" standalone="no"?>
<svg
   width="64"
   height="64"
   viewBox="0 0 64 64"
   version="1.1"
   id="svg10"
   sodipodi:docname="delete.svg"
   inkscape:version="1.1 (c4e8f9ed74, 2021-05-24)"
   xmlns:inkscape="http://www.inkscape.org/namespaces/inkscape"
   xmlns:sodipodi="http://sodipodi.sourceforge.net/DTD/sodipodi-0.dtd"
   xmlns="http://www.w3.org/2000/svg"
   xmlns:svg="http://www.w3.org/2000/svg"
   xmlns:rdf="http://www.w3.org/1999/02/22-rdf-syntax-ns#"
   xmlns:cc="http://creativecommons.org/ns#"
   xmlns:dc="http://purl.org/dc/elements/1.1/">
  <metadata
     id="metadata16">
    <rdf:RDF>
      <cc:Work
         rdf:about="">
        <dc:format>image/svg+xml</dc:format>
        <dc:type
           rdf:resource="http://purl.org/dc/dcmitype/StillImage" />
        <dc:title>folder</dc:title>
      </cc:Work>
    </rdf:RDF>
  </metadata>
  <defs
     id="defs14" />
  <sodipodi:namedview
     pagecolor="#bfbfbf"
     bordercolor="#666666"
     borderopacity="1"
     objecttolerance="10"
     gridtolerance="10"
     guidetolerance="10"
     inkscape:pageopacity="0"
     inkscape:pageshadow="2"
     inkscape:window-width="1600"
     inkscape:window-height="826"
     id="namedview12"
     showgrid="false"
     inkscape:pagecheckerboard="false"
     inkscape:zoom="5.4137931"
     inkscape:cx="23.273885"
     inkscape:cy="39.990446"
     inkscape:window-x="0"
     inkscape:window-y="0"
     inkscape:window-maximized="1"
     inkscape:current-layer="svg10"
     inkscape:snap-bbox="true"
     inkscape:snap-bbox-edge-midpoints="true"
     inkscape:document-rotation="0"
     inkscape:snap-bbox-midpoints="true"
     inkscape:snap-intersection-paths="true"
     inkscape:snap-midpoints="true"
     inkscape:snap-smooth-nodes="true"
     inkscape:snap-object-midpoints="true"
     inkscape:snap-center="true"
     inkscape:bbox-nodes="true"
     inkscape:bbox-paths="true" />
  <!-- Generator: Sketch 52.5 (67469) - http://www.bohemiancoding.com/sketch -->
  <title
     id="title2">folder</title>
  <desc
     id="desc4">Created with Sketch.</desc>
  <g
     style="fill:#ffffff;stroke:none;stroke-width:9.84615"
     id="g10"
     transform="matrix(0.1015625,0,0,0.1015625,5.9999492,6)">
    <path
       d="m 256,441.142 c 8.284,0 15,-6.716 15,-15 V 224.733 c 0,-8.284 -6.716,-15 -15,-15 -8.284,0 -15,6.716 -15,15 v 201.409 c 0,8.284 6.716,15 15,15 z"
       id="path2"
       style="stroke:none;stroke-width:9.84615" />
    <path
       d="m 173.412,427.552 c 0.78,8.263 8.115,14.303 16.344,13.523 8.248,-0.779 14.302,-8.096 13.523,-16.344 L 184.261,223.322 c -0.779,-8.247 -8.083,-14.303 -16.344,-13.523 -8.248,0.779 -14.302,8.096 -13.523,16.344 z"
       id="path4"
       style="stroke:none;stroke-width:9.84615" />
    <path
       d="m 322.244,441.076 c 8.238,0.779 15.564,-5.269 16.344,-13.523 l 19.018,-201.409 c 0.779,-8.248 -5.276,-15.565 -13.523,-16.344 -8.26,-0.784 -15.565,5.276 -16.344,13.523 l -19.018,201.409 c -0.779,8.247 5.276,15.565 13.523,16.344 z"
       id="path6"
       style="stroke:none;stroke-width:9.84615" />
    <path
       d="m 57.646,168.875 h 8.967 l 43.448,330.083 c 0.982,7.463 7.344,13.042 14.872,13.042 h 262.135 c 7.528,0 13.889,-5.579 14.872,-13.042 l 43.448,-330.083 h 8.967 c 8.284,0 15,-6.716 15,-15 V 88.246 c 0,-8.284 -6.716,-15 -15,-15 H 325.998 V 67.335 C 325.998,30.207 295.791,0 258.663,0 h -5.325 C 216.21,0 186.003,30.207 186.003,67.335 v 5.911 H 57.646 c -8.284,0 -15,6.716 -15,15 v 65.629 c 0,8.284 6.715,15 15,15 z M 373.913,482 H 138.087 L 96.872,168.875 H 415.129 Z M 216.002,67.335 C 216.002,46.749 232.751,30 253.337,30 h 5.325 c 20.586,0 37.335,16.749 37.335,37.335 v 5.911 H 216.002 Z M 72.646,103.246 h 366.709 v 35.629 c -3.207,0 -362.709,0 -366.709,0 z"
       id="path8"
       style="stroke:none;stroke-width:9.84615" />
  </g>
</svg>
